Newaita-dark/apps/24/wps-office-etmain.svg

<svg height="24" viewBox="0 0 24 24" width="24" xmlns="http://www.w3.org/2000/svg" xmlns:xlink="http://www.w3.org/1999/xlink"><linearGradient id="a" gradientUnits="userSpaceOnUse" x1="11.907391" x2="11.907391" y1="21.02545125" y2="22.01773425002"><stop offset="0" stop-opacity=".27451"/><stop offset="1" stop-opacity="0"/></linearGradient><linearGradient id="b"><stop offset="0" stop-opacity=".313726"/><stop offset=".222222" stop-opacity=".27451"/><stop offset="1" stop-opacity="0"/></linearGradient><radialGradient id="c" cx="450.908936" cy="189.579361" gradientTransform="matrix(.00000013 -.0585994 -.105479 -.00000008 36.617283 47.696499)" gradientUnits="userSpaceOnUse" r="21.166656" xlink:href="#b"/><radialGradient id="d" cx="450.908936" cy="189.579361" gradientTransform="matrix(-.00000013 .0585994 .105479 .00000008 -13.298648 -5.645609)" gradientUnits="userSpaceOnUse" r="21.166656" xlink:href="#b"/><radialGradient id="e" cx="450.908936" cy="189.579361" gradientTransform="matrix(-.00000013 -.0585994 .105479 -.00000008 -13.298648 47.696502)" gradientUnits="userSpaceOnUse" r="21.166656" xlink:href="#b"/><radialGradient id="f" cx="450.908936" cy="189.579361" gradientTransform="matrix(.00000013 .0585994 -.105479 .00000008 36.617283 -5.645609)" gradientUnits="userSpaceOnUse" r="21.166656" xlink:href="#b"/><linearGradient id="g" gradientUnits="userSpaceOnUse" x1="11.65929" x2="11.65929" y1="21.02539814717" y2="2.17207757661"><stop offset="0" stop-color="#eee"/><stop offset="1" stop-color="#f5f5f5"/></linearGradient><linearGradient id="h" gradientUnits="userSpaceOnUse" x1="254" x2="248.708344" y1="148.833328" y2="-62.833332"><stop offset="0" stop-color="#9e9e9e"/><stop offset="1" stop-color="#bdbdbd"/></linearGradient><linearGradient id="i"><stop offset="0" stop-color="#66bb6a"/><stop offset="1" stop-color="#81c784"/></linearGradient><linearGradient id="j" gradientTransform="matrix(.0468795 0 0 .0592162 0 5.670874)" gradientUnits="userSpaceOnUse" x1="243.416656" x2="243.416656" xlink:href="#i" y1="259.296906" y2="-59.085064"/><linearGradient id="k" gradientUnits="userSpaceOnUse" x1="11.65929" x2="11.65929" xlink:href="#i" y1="21.02539814717" y2="2.17207757661"/><path d="m6.449219 21.027344h10.417969v.992187h-10.417969zm0 0" fill="url(#a)"/><path d="m16.867188 21.027344h1.984374v-.996094h-1.984374zm0 0" fill="url(#c)"/><path d="m6.449219 21.027344h-1.984375v.992187h1.984375zm0 0" fill="url(#d)"/><path d="m6.449219 21.027344h-1.984375v-.996094h1.984375zm0 0" fill="url(#e)"/><path d="m16.867188 21.027344h1.984374v.992187h-1.984374zm0 0" fill="url(#f)"/><path d="m5.457031 2.171875c-.550781 0-.992187.441406-.992187.992187v16.867188c0 .550781.441406.996094.992187.996094h12.402344c.550781 0 .992187-.445313.992187-.996094v-13.394531l-4.464843-4.464844zm9.921875 0 3.472656 3.472656v-2.480469c0-.550781-.441406-.992187-.992187-.992187zm0 0" fill="url(#g)"/><path d="m160.401349-.270506c-10.165696 5.832777-13.582036 18.74821-7.74926 28.913906l58.244438 100.823705c5.832776 10.165696 18.74821 13.582036 28.913906 7.74926l100.823705-58.244438c10.165696-5.832776 13.582036-18.74821 7.74926-28.913905l-58.244438-100.823706c-5.832777-10.08237-18.74821-13.582036-28.913906-7.74926zm20.498043 24.830962 41.246061-23.831057 13.248735 22.914478-50.411853 29.163882-7.665935-13.33206c-3.083038-5.332824-1.499856-11.998854 3.582992-14.915243zm54.994748-31.746968 36.663165-21.164645c5.082848-2.916389 11.665553-.999905 14.665267 4.332919l7.74926 13.33206-45.828957 26.414145zm-42.995894 73.742958 50.411852-29.163882 13.248735 22.914479-50.411852 29.163881zm64.160539-37.079792 45.828957-26.414145 13.248735 22.914479-45.828957 26.414144zm-42.995894 73.742958 50.411853-29.163882 13.248735 22.914478-41.246061 23.831058c-5.082848 2.916388-11.665553.999904-14.748592-4.33292zm64.16054-37.079793 45.828957-26.414144 7.665934 13.248735c3.083039 5.332824 1.499857 11.998854-3.582991 14.915242l-36.663165 21.164646zm0 0" fill="url(#h)" stroke="#212121" stroke-linecap="round" stroke-linejoin="round" stroke-width="3" transform="matrix(.0468795 0 0 .0468795 0 10.079087)"/><path d="m4.464844 12.589844h14.386718v4.714844h-14.386718zm0 0" fill="url(#j)"/><path d="m4.464844 17.304688v.371093h14.386718v-.371093zm0 0" fill-opacity=".235294"/><path d="m4.464844 12.589844v.375h14.386718v-.375zm0 0" fill="#fff" fill-opacity=".392157"/><path d="m4.464844 12.519531c-.039063 0-.070313.03125-.070313.070313v4.714844c0 .039062.03125.070312.070313.070312h14.386718c.039063 0 .070313-.03125.070313-.070312v-4.714844c0-.039063-.03125-.070313-.070313-.070313zm.070312.140625h14.246094v4.574219h-14.246094zm0 0" fill="#212121"/><path d="m15.378906 2.171875 3.472656 3.472656v-2.480469c0-.550781-.441406-.992187-.992187-.992187zm0 0" fill="url(#k)"/><path d="m5.457031 2.171875c-.550781 0-.992187.441406-.992187.992187v.25c0-.550781.441406-.992187.992187-.992187h8.929688l4.464843 4.464844v-.25l-4.464843-4.464844zm9.921875 0 .25.25h2.230469c.550781 0 .992187.441406.992187.992187v-.25c0-.550781-.441406-.992187-.992187-.992187zm0 0" fill="#fff" fill-opacity=".392157"/><path d="m15.378906 2.171875 3.472656 3.472656v-.367187l-3.101562-3.105469zm-10.914062 17.492187v.367188c0 .550781.441406.996094.992187.996094h12.402344c.550781 0 .992187-.445313.992187-.996094v-.367188c0 .550782-.441406.992188-.992187.992188h-12.402344c-.550781 0-.992187-.441406-.992187-.992188zm0 0" fill-opacity=".235294"/><path d="m5.457031 2.101562c-.585937 0-1.0625.476563-1.0625 1.0625v16.867188c0 .589844.476563 1.066406 1.0625 1.066406h12.402344c.589844 0 1.0625-.476562 1.0625-1.066406v-13.394531c0-.019531-.003906-.035157-.019531-.050781l-4.464844-4.464844c-.011719-.011719-.03125-.019532-.050781-.019532zm9.921875 0c-.027344 0-.050781.015626-.0625.042969-.011718.027344-.007812.058594.015625.078125l3.472657 3.472656c.019531.019532.050781.027344.074218.015626.027344-.011719.042969-.039063.042969-.066407v-2.480469c0-.585937-.472656-1.0625-1.0625-1.0625zm-9.921875.140626h8.902344l4.421875 4.425781v13.363281c0 .515625-.40625.925781-.921875.925781h-12.402344c-.511719 0-.921875-.410156-.921875-.925781v-16.867188c0-.511718.410156-.921874.921875-.921874zm10.09375 0h2.308594c.515625 0 .921875.410156.921875.921874v2.3125zm0 0" fill="#212121"/></svg>

<?xml version="1.0" encoding="UTF-8"?>
<svg xmlns="http://www.w3.org/2000/svg" xmlns:xlink="http://www.w3.org/1999/xlink" width="24px" height="24px" viewBox="0 0 24 24" version="1.1">
<defs>
<linearGradient id="linear0" gradientUnits="userSpaceOnUse" x1="254" y1="233.5" x2="254" y2="254.666672" gradientTransform="matrix(0.0468795,0,0,0.0468795,-0.00000187518,10.079088)">
<stop offset="0" style="stop-color:rgb(0%,0%,0%);stop-opacity:0.27451;"/>
<stop offset="1" style="stop-color:rgb(0%,0%,0%);stop-opacity:0;"/>
</linearGradient>
<radialGradient id="radial0" gradientUnits="userSpaceOnUse" cx="450.908936" cy="189.579361" fx="450.908936" fy="189.579361" r="21.166656" gradientTransform="matrix(0.000000130628,-0.0585994,-0.105479,-0.0000000761539,36.617283,47.696499)">
<stop offset="0" style="stop-color:rgb(0%,0%,0%);stop-opacity:0.313726;"/>
<stop offset="0.222222" style="stop-color:rgb(0%,0%,0%);stop-opacity:0.27451;"/>
<stop offset="1" style="stop-color:rgb(0%,0%,0%);stop-opacity:0;"/>
</radialGradient>
<radialGradient id="radial1" gradientUnits="userSpaceOnUse" cx="450.908936" cy="189.579361" fx="450.908936" fy="189.579361" r="21.166656" gradientTransform="matrix(-0.000000130628,0.0585994,0.105479,0.0000000761539,-13.298648,-5.645609)">
<stop offset="0" style="stop-color:rgb(0%,0%,0%);stop-opacity:0.313726;"/>
<stop offset="0.222222" style="stop-color:rgb(0%,0%,0%);stop-opacity:0.27451;"/>
<stop offset="1" style="stop-color:rgb(0%,0%,0%);stop-opacity:0;"/>
</radialGradient>
<radialGradient id="radial2" gradientUnits="userSpaceOnUse" cx="450.908936" cy="189.579361" fx="450.908936" fy="189.579361" r="21.166656" gradientTransform="matrix(-0.000000130628,-0.0585994,0.105479,-0.0000000761539,-13.298648,47.696502)">
<stop offset="0" style="stop-color:rgb(0%,0%,0%);stop-opacity:0.313726;"/>
<stop offset="0.222222" style="stop-color:rgb(0%,0%,0%);stop-opacity:0.27451;"/>
<stop offset="1" style="stop-color:rgb(0%,0%,0%);stop-opacity:0;"/>
</radialGradient>
<radialGradient id="radial3" gradientUnits="userSpaceOnUse" cx="450.908936" cy="189.579361" fx="450.908936" fy="189.579361" r="21.166656" gradientTransform="matrix(0.000000130628,0.0585994,-0.105479,0.0000000761539,36.617283,-5.645609)">
<stop offset="0" style="stop-color:rgb(0%,0%,0%);stop-opacity:0.313726;"/>
<stop offset="0.222222" style="stop-color:rgb(0%,0%,0%);stop-opacity:0.27451;"/>
<stop offset="1" style="stop-color:rgb(0%,0%,0%);stop-opacity:0;"/>
</radialGradient>
<linearGradient id="linear1" gradientUnits="userSpaceOnUse" x1="940" y1="1695.118164" x2="940" y2="175.118118" gradientTransform="matrix(0.0124035,0,0,0.0124035,0,0.00000000000000141)">
<stop offset="0" style="stop-color:rgb(93.333334%,93.333334%,93.333334%);stop-opacity:1;"/>
<stop offset="1" style="stop-color:rgb(96.078432%,96.078432%,96.078432%);stop-opacity:1;"/>
</linearGradient>
<linearGradient id="linear2" gradientUnits="userSpaceOnUse" x1="254" y1="148.833328" x2="248.708344" y2="-62.833332" gradientTransform="matrix(1,0,0,1,0,0)">
<stop offset="0" style="stop-color:rgb(61.960787%,61.960787%,61.960787%);stop-opacity:1;"/>
<stop offset="1" style="stop-color:rgb(74.117649%,74.117649%,74.117649%);stop-opacity:1;"/>
</linearGradient>
<linearGradient id="linear3" gradientUnits="userSpaceOnUse" x1="243.416656" y1="259.296906" x2="243.416656" y2="-59.085064" gradientTransform="matrix(0.0468795,0,0,0.0592162,0.000000476883,5.670874)">
<stop offset="0" style="stop-color:rgb(40.000001%,73.333335%,41.568628%);stop-opacity:1;"/>
<stop offset="1" style="stop-color:rgb(50.588238%,78.039217%,51.764709%);stop-opacity:1;"/>
</linearGradient>
<linearGradient id="linear4" gradientUnits="userSpaceOnUse" x1="940" y1="1695.118164" x2="940" y2="175.118118" gradientTransform="matrix(0.0124035,0,0,0.0124035,0,0.00000000000000141)">
<stop offset="0" style="stop-color:rgb(40.000001%,73.333335%,41.568628%);stop-opacity:1;"/>
<stop offset="1" style="stop-color:rgb(50.588238%,78.039217%,51.764709%);stop-opacity:1;"/>
</linearGradient>
</defs>
<g id="surface1">
<path style=" stroke:none;fill-rule:nonzero;fill:url(#linear0);" d="M 6.449219 21.027344 L 16.867188 21.027344 L 16.867188 22.019531 L 6.449219 22.019531 Z M 6.449219 21.027344 "/>
<path style=" stroke:none;fill-rule:nonzero;fill:url(#radial0);" d="M 16.867188 21.027344 L 18.851562 21.027344 L 18.851562 20.03125 L 16.867188 20.03125 Z M 16.867188 21.027344 "/>
<path style=" stroke:none;fill-rule:nonzero;fill:url(#radial1);" d="M 6.449219 21.027344 L 4.464844 21.027344 L 4.464844 22.019531 L 6.449219 22.019531 Z M 6.449219 21.027344 "/>
<path style=" stroke:none;fill-rule:nonzero;fill:url(#radial2);" d="M 6.449219 21.027344 L 4.464844 21.027344 L 4.464844 20.03125 L 6.449219 20.03125 Z M 6.449219 21.027344 "/>
<path style=" stroke:none;fill-rule:nonzero;fill:url(#radial3);" d="M 16.867188 21.027344 L 18.851562 21.027344 L 18.851562 22.019531 L 16.867188 22.019531 Z M 16.867188 21.027344 "/>
<path style=" stroke:none;fill-rule:nonzero;fill:url(#linear1);" d="M 5.457031 2.171875 C 4.90625 2.171875 4.464844 2.613281 4.464844 3.164062 L 4.464844 20.03125 C 4.464844 20.582031 4.90625 21.027344 5.457031 21.027344 L 17.859375 21.027344 C 18.410156 21.027344 18.851562 20.582031 18.851562 20.03125 L 18.851562 6.636719 L 14.386719 2.171875 Z M 15.378906 2.171875 L 18.851562 5.644531 L 18.851562 3.164062 C 18.851562 2.613281 18.410156 2.171875 17.859375 2.171875 Z M 15.378906 2.171875 "/>
<path style="fill-rule:nonzero;fill:url(#linear2);stroke-width:3;stroke-linecap:round;stroke-linejoin:round;stroke:rgb(12.941177%,12.941177%,12.941177%);stroke-opacity:1;stroke-miterlimit:4;" d="M 160.401349 -0.270506 C 150.235653 5.562271 146.819313 18.477704 152.652089 28.6434 L 210.896527 129.467105 C 216.729303 139.632801 229.644737 143.049141 239.810433 137.216365 L 340.634138 78.971927 C 350.799834 73.139151 354.216174 60.223717 348.383398 50.058022 L 290.13896 -50.765684 C 284.306183 -60.848054 271.39075 -64.34772 261.225054 -58.514944 Z M 180.899392 24.560456 L 222.145453 0.729399 L 235.394188 23.643877 L 184.982335 52.807759 L 177.3164 39.475699 C 174.233362 34.142875 175.816544 27.476845 180.899392 24.560456 Z M 235.89414 -7.186512 L 272.557305 -28.351157 C 277.640153 -31.267546 284.222858 -29.351062 287.222572 -24.018238 L 294.971832 -10.686178 L 249.142875 15.727967 Z M 192.898246 66.556446 L 243.310098 37.392564 L 256.558833 60.307043 L 206.146981 89.470924 Z M 257.058785 29.476654 L 302.887742 3.062509 L 316.136477 25.976988 L 270.30752 52.391132 Z M 214.062891 103.219612 L 264.474744 74.05573 L 277.723479 96.970208 L 236.477418 120.801266 C 231.39457 123.717654 224.811865 121.80117 221.728826 116.468346 Z M 278.223431 66.139819 L 324.052388 39.725675 L 331.718322 52.97441 C 334.801361 58.307234 333.218179 64.973264 328.135331 67.889652 L 291.472166 89.054298 Z M 278.223431 66.139819 " transform="matrix(0.0468795,0,0,0.0468795,0,10.079087)"/>
<path style=" stroke:none;fill-rule:nonzero;fill:url(#linear3);" d="M 4.464844 12.589844 L 18.851562 12.589844 L 18.851562 17.304688 L 4.464844 17.304688 Z M 4.464844 12.589844 "/>
<path style=" stroke:none;fill-rule:nonzero;fill:rgb(0%,0%,0%);fill-opacity:0.235294;" d="M 4.464844 17.304688 L 4.464844 17.675781 L 18.851562 17.675781 L 18.851562 17.304688 Z M 4.464844 17.304688 "/>
<path style=" stroke:none;fill-rule:nonzero;fill:rgb(100%,100%,100%);fill-opacity:0.392157;" d="M 4.464844 12.589844 L 4.464844 12.964844 L 18.851562 12.964844 L 18.851562 12.589844 Z M 4.464844 12.589844 "/>
<path style=" stroke:none;fill-rule:nonzero;fill:rgb(12.941177%,12.941177%,12.941177%);fill-opacity:1;" d="M 4.464844 12.519531 C 4.425781 12.519531 4.394531 12.550781 4.394531 12.589844 L 4.394531 17.304688 C 4.394531 17.34375 4.425781 17.375 4.464844 17.375 L 18.851562 17.375 C 18.890625 17.375 18.921875 17.34375 18.921875 17.304688 L 18.921875 12.589844 C 18.921875 12.550781 18.890625 12.519531 18.851562 12.519531 Z M 4.535156 12.660156 L 18.78125 12.660156 L 18.78125 17.234375 L 4.535156 17.234375 Z M 4.535156 12.660156 "/>
<path style=" stroke:none;fill-rule:nonzero;fill:url(#linear4);" d="M 15.378906 2.171875 L 18.851562 5.644531 L 18.851562 3.164062 C 18.851562 2.613281 18.410156 2.171875 17.859375 2.171875 Z M 15.378906 2.171875 "/>
<path style=" stroke:none;fill-rule:nonzero;fill:rgb(100%,100%,100%);fill-opacity:0.392157;" d="M 5.457031 2.171875 C 4.90625 2.171875 4.464844 2.613281 4.464844 3.164062 L 4.464844 3.414062 C 4.464844 2.863281 4.90625 2.421875 5.457031 2.421875 L 14.386719 2.421875 L 18.851562 6.886719 L 18.851562 6.636719 L 14.386719 2.171875 Z M 15.378906 2.171875 L 15.628906 2.421875 L 17.859375 2.421875 C 18.410156 2.421875 18.851562 2.863281 18.851562 3.414062 L 18.851562 3.164062 C 18.851562 2.613281 18.410156 2.171875 17.859375 2.171875 Z M 15.378906 2.171875 "/>
<path style=" stroke:none;fill-rule:nonzero;fill:rgb(0%,0%,0%);fill-opacity:0.235294;" d="M 15.378906 2.171875 L 18.851562 5.644531 L 18.851562 5.277344 L 15.75 2.171875 Z M 4.464844 19.664062 L 4.464844 20.03125 C 4.464844 20.582031 4.90625 21.027344 5.457031 21.027344 L 17.859375 21.027344 C 18.410156 21.027344 18.851562 20.582031 18.851562 20.03125 L 18.851562 19.664062 C 18.851562 20.214844 18.410156 20.65625 17.859375 20.65625 L 5.457031 20.65625 C 4.90625 20.65625 4.464844 20.214844 4.464844 19.664062 Z M 4.464844 19.664062 "/>
<path style=" stroke:none;fill-rule:nonzero;fill:rgb(12.941177%,12.941177%,12.941177%);fill-opacity:1;" d="M 5.457031 2.101562 C 4.871094 2.101562 4.394531 2.578125 4.394531 3.164062 L 4.394531 20.03125 C 4.394531 20.621094 4.871094 21.097656 5.457031 21.097656 L 17.859375 21.097656 C 18.449219 21.097656 18.921875 20.621094 18.921875 20.03125 L 18.921875 6.636719 C 18.921875 6.617188 18.917969 6.601562 18.902344 6.585938 L 14.4375 2.121094 C 14.425781 2.109375 14.40625 2.101562 14.386719 2.101562 Z M 15.378906 2.101562 C 15.351562 2.101562 15.328125 2.117188 15.316406 2.144531 C 15.304688 2.171875 15.308594 2.203125 15.332031 2.222656 L 18.804688 5.695312 C 18.824219 5.714844 18.855469 5.722656 18.878906 5.710938 C 18.90625 5.699219 18.921875 5.671875 18.921875 5.644531 L 18.921875 3.164062 C 18.921875 2.578125 18.449219 2.101562 17.859375 2.101562 Z M 5.457031 2.242188 L 14.359375 2.242188 L 18.78125 6.667969 L 18.78125 20.03125 C 18.78125 20.546875 18.375 20.957031 17.859375 20.957031 L 5.457031 20.957031 C 4.945312 20.957031 4.535156 20.546875 4.535156 20.03125 L 4.535156 3.164062 C 4.535156 2.652344 4.945312 2.242188 5.457031 2.242188 Z M 15.550781 2.242188 L 17.859375 2.242188 C 18.375 2.242188 18.78125 2.652344 18.78125 3.164062 L 18.78125 5.476562 Z M 15.550781 2.242188 "/>
</g>
</svg>
